X: 48
T:Highland Mary - Oddington
M:4/4
L:1/8
Q:150
S:OY(A2B2)3
N:Tune as played for Grand Union Morris
N:www.grandunionmorris.co.uk
K:G
"A" D2 | G2 AG F2 D2 | G2 AB c2 Bc | d2 Bd c2 BA | G2 FE D2 D2 | G2 AG F
2
 D2 | G2 AB c2 Bc | d2 Bd c2 BA | G2 F2 G2 ||
"B" B2 | d2 d2 d2 cB | c2 c2 c2 Bc | d2 d2 dcBA | G2 FE D2 D2 | G2 AG F2
 D2 | G2 AB c2 Bc | d2 Bd c2 BA | G2 F2 G2 ||

